X: 1489
T: Nihâvent Peşrev
C: Kanunî Mehmed Bey
O: Turkey
F: http://compmusic.upf.edu/node/140
N: nihavent--pesrev--devrikebir----kanuni_mehmed_bey
N: makam= nihavent
N: form= pesrev
N: usul= devrikebir = 28/4
M: 28/4
L: 1/16
K: C _B _e  
Q: 1/4=78
%%MIDI tuningsystem comma53
G6d2 c4 d4  | c3e d2.c2 BcB2 A4  | z2c4e2 d2c2 B2A2  | \
w:  1. HANE  |   |   | 
B3A AGG^F G8  | 
w:   | 
z2A4c2 B4 A4  | BcBA B2c2 d6{e}c2  | \
w:   |   | 
d3c cB{c}Bc d6z2  | 
w:   | 
c2d4c2 cB{c}BA B4  | ABc4d2 B3A G4  | \
w:   |   | 
A3G ^F2G2 A6z2  | 
w:   | 
.B4 BcBA .A4 ABAG  | G6AG ^F4 G4  | A2B2 G2A2 B4 c4  | 
w:   |   |   | 
BcBA B2c2 d6z2  | d6_3/4e2 f4 g4  | f4 {a}g2f2 _3/4e3d c4  | \
w:   |  TESLİM  |   | 
d2d4_3/4e2 f4 e2d2  | 
w:   | 
d2e2 d2c2 d3c B4  | z4 A2B2 c4 B2c2  | \
w:   |   | 
ded2 c2B2 B3A AG{A}G^F  | 
w:   | 
G6D2 E2^F2 G4  | A4 B8 A4  | B2A2 G4 A2G2 ^F4  | \
w:   |  2. HANE  |   | 
G4 ^F2G2 A4 z4  | B6A2 B4 c2{_d}B2  | 
w:   |   | 
A4 B2A2 G4 A4  | ^FGFE F2G2 A4 z4  | \
w:   |   | 
d6c2 B4 c4  | d2_3/4e2 d2e2 f4 e4  | 
w:   |   | 
d2g2 f2_3/4e2 d4 c4  | B6e2 d4 c4  | \
w:   |   | 
B2A2 B2c2 B4 A4  | G6^f2 e4 ^c4  | d6^c2 B4 A4  | 
w:   |   |   | 
BcBA B2c2 d6z2  | d6_3/4e2 f4 g4  | f4 {a}g2f2 _3/4e3d c4  | \
w:   |  TESLİM  |   | 
d2d4_3/4e2 f4 e2d2  | 
w:   | 
d2e2 d2c2 d3c B4  | z4 A2B2 c4 B2c2  | \
w:   |   | 
ded2 c2B2 B3A AG{A}G^F  | 
w:   | 
G6D2 E2^F2 G4  | ^f4 g8 f2e2  | d2c2 B2A2 B3A AGG^F  | \
w:   |  3. HANE  |   | 
G6d2 e2^f2 g4  | 
w:   | 
a6^f2 g4 a4  | b6a2 b4 c'4  | b4 c'2b2 a4 b2a2  | \
w:   |   |   | 
g6a2 g4 ^f2e2  | d6e2 ^f4 g4  | 
w:   |   | 
^f2e2 d2^c2 B6z2  | f4 g8 f2e2  | f2g2 _a2b2 {b}a2g2 f2e2  | \
w:   |   |   | 
d2e2 d2c2 B6z2  | 
w:   | 
f3_2/4e f2g2 f2_7/8e2 d2c2  | B3A G2^F2 G6z2  | \
w:   |   | 
d6_3/4e2 f4 g4  | f4 {a}g2f2 _3/4e3d c4  | 
w:  TESLİM  |   | 
d2d4_3/4e2 f4 e2d2  | d2e2 d2c2 d3c B4  | \
w:   |   | 
z4 A2B2 c4 B2c2  | ded2 c2B2 B3A AG{A}G^F  | 
w:   |   | 
G6D2 E2^F2 G4  | ^c4 d8 c4  | d2^c2 d4 B3A G4  | \
w:   |  4. HANE  |   | 
A3c B2A2 A2GA G2^F2  | 
w:   | 
G6A_2/4B c8  | z2c4_3/4d2 =e2f2 e2d2  | \
w:   |   | 
=e2fg fe_3/4d2 c4 d4  | z4 _3/4d2c2 d4 =e2d2  | 
w:   |   | 
c3=e _3/4d2c2 _2/4B2cB A4  | A2_2/4Bc BAG2 =e_7/8dcB c4  | \
w:   |   | 
z4 d2c2 e2d2 c2B2  | 
w:   | 
z2B2 A2B2 d2c2 B2A2  | z2A2 G2A2 c2B2 A2G2  | \
w:   |   | 
z2A4c2 c3B B3A  | 
w:   | 
A3G ^FGAF G4 z4  | d6_3/4e2 f4 g4  | \
w:   |  TESLİM  | 
f4 {a}g2f2 _3/4e3d c4  | d2d4_3/4e2 f4 e2d2  | 
w:   |   | 
d2e2 d2c2 d3c B4  | z4 A2B2 c4 B2c2  | \
w:   |   | 
ded2 c2B2 B3A AG{A}G^F  | 
w:   | 
G6D2 E2^F2 G4  | |


